src/actions/24/table.svg

<svg xmlns="http://www.w3.org/2000/svg" viewBox="0 0 24 24">
    <path d="M4 4v16h16V4H4zm1 1h5v5H5V5zm6 0h2v2h-2V5zm3 0h2v2h-2V5zm3 0h2v2h-2V5zm-6 3h2v2h-2V8zm3 0h2v2h-2V8zm3 0h2v2h-2V8zM5 11h2v2H5v-2zm3 0h2v2H8v-2zm3 0h2v2h-2v-2zm3 0h2v2h-2v-2zm3 0h2v2h-2v-2zM5 14h2v2H5v-2zm3 0h2v2H8v-2zm3 0h2v2h-2v-2zm3 0h2v2h-2v-2zm3 0h2v2h-2v-2zM5 17h2v2H5v-2zm3 0h2v2H8v-2zm3 0h2v2h-2v-2zm3 0h2v2h-2v-2zm3 0h2v2h-2v-2z" style="fill:currentColor;fill-opacity:1;stroke:none;color:#050505;opacity:.7"/>
    <path d="M5 5v5h5V5H5z" style="fill:currentColor;fill-opacity:1;stroke:none;color:#a0b6cb"/>
</svg>

<svg xmlns="http://www.w3.org/2000/svg" viewBox="0 0 24 24">
  <defs id="defs3051">
    <style type="text/css" id="current-color-scheme">
      .ColorScheme-Text {
        color:#363636;
      }
      .ColorScheme-Highlight {
        color:#a0b6cb;
      }
      </style>
  </defs>
 <path 
     style="fill:currentColor;fill-opacity:1;stroke:none" 
     d="M 4 4 L 4 20 L 13 20 L 19 20 L 20 20 L 20 13 L 20 4 L 4 4 z M 5 5 L 7 5 L 8 5 L 10 5 L 10 10 L 5 10 L 5 8 L 5 7 L 5 5 z M 11 5 L 13 5 L 13 7 L 11 7 L 11 5 z M 14 5 L 16 5 L 16 7 L 14 7 L 14 5 z M 17 5 L 19 5 L 19 7 L 17 7 L 17 5 z M 11 8 L 13 8 L 13 10 L 11 10 L 11 8 z M 14 8 L 16 8 L 16 10 L 14 10 L 14 8 z M 17 8 L 19 8 L 19 10 L 17 10 L 17 8 z M 5 11 L 7 11 L 7 13 L 5 13 L 5 11 z M 8 11 L 10 11 L 10 13 L 8 13 L 8 11 z M 11 11 L 13 11 L 13 13 L 11 13 L 11 11 z M 14 11 L 16 11 L 16 13 L 14 13 L 14 11 z M 17 11 L 19 11 L 19 13 L 17 13 L 17 11 z M 5 14 L 7 14 L 7 16 L 5 16 L 5 14 z M 8 14 L 10 14 L 10 16 L 8 16 L 8 14 z M 11 14 L 13 14 L 13 16 L 11 16 L 11 14 z M 14 14 L 16 14 L 16 16 L 14 16 L 14 14 z M 17 14 L 19 14 L 19 16 L 17 16 L 17 14 z M 5 17 L 7 17 L 7 19 L 5 19 L 5 17 z M 8 17 L 10 17 L 10 19 L 8 19 L 8 17 z M 11 17 L 13 17 L 13 19 L 11 19 L 11 17 z M 14 17 L 16 17 L 16 19 L 14 19 L 14 17 z M 17 17 L 19 17 L 19 19 L 17 19 L 17 17 z "
     class="ColorScheme-Text"
     />
 <path 
     style="fill:currentColor;fill-opacity:1;stroke:none" 
     d="M 5 5 L 5 8 L 5 10 L 10 10 L 10 8 L 10 5 L 8 5 L 5 5 z "
     class="ColorScheme-Highlight"
     />
</svg>
